Sources/FrostedUI/Resources/Icons.xcassets/arrowUpRightFromBracket16.imageset/arrow-up-right-from-bracket-16.svg

<svg width="16" height="16" viewBox="0 0 16 16" fill="none" xmlns="http://www.w3.org/2000/svg" data-fui-icon="true">
  <path
    d="M15.2499 10C15.6642 10 15.9999 10.3358 15.9999 10.75V12.25C15.9999 14.321 14.321 16 12.25 16H3.74999C1.67894 16 3.04088e-05 14.321 0 12.25V10.75C0 10.3358 0.335785 10 0.749997 10C1.16421 10 1.49999 10.3358 1.49999 10.75V12.25C1.50002 13.4926 2.50737 14.5 3.74999 14.5H12.25C13.4926 14.5 14.4999 13.4926 14.4999 12.25V10.75C14.4999 10.3358 14.8357 10 15.2499 10ZM10.2197 0.969784C10.5126 0.676892 10.9873 0.676892 11.2802 0.969784L13.5302 3.21978C13.8231 3.51267 13.8231 3.98744 13.5302 4.28032L11.2802 6.53031C10.9873 6.82316 10.5126 6.82316 10.2197 6.53031C9.9268 6.23743 9.92682 5.76266 10.2197 5.46977L11.1894 4.50004H9.24996C8.00733 4.50004 6.99997 5.5074 6.99997 6.75004V10.25C6.99994 10.6642 6.66417 11 6.24998 11C5.83578 11 5.50001 10.6642 5.49998 10.25V6.75004C5.49998 4.67898 7.1789 3.00005 9.24996 3.00005H11.1894L10.2197 2.03033C9.9268 1.73744 9.92682 1.26268 10.2197 0.969784Z"
    fill="currentColor"
  />
</svg>

<svg xmlns="http://www.w3.org/2000/svg" width="16" height="16" fill="none" data-fui-icon="true" viewBox="0 0 16 16"><path fill="currentColor" d="M15.25 10a.75.75 0 0 1 .75.75v1.5A3.75 3.75 0 0 1 12.25 16h-8.5A3.75 3.75 0 0 1 0 12.25v-1.5a.75.75 0 0 1 1.5 0v1.5a2.25 2.25 0 0 0 2.25 2.25h8.5a2.25 2.25 0 0 0 2.25-2.25v-1.5a.75.75 0 0 1 .75-.75M10.22.97a.75.75 0 0 1 1.06 0l2.25 2.25a.75.75 0 0 1 0 1.06l-2.25 2.25a.75.75 0 1 1-1.06-1.06l.97-.97H9.25A2.25 2.25 0 0 0 7 6.75v3.5a.75.75 0 0 1-1.5 0v-3.5A3.75 3.75 0 0 1 9.25 3h1.94l-.97-.97a.75.75 0 0 1 0-1.06"/></svg>
